X:1
T:The New Waterloo Reel
T:The New Waterloo Reel
T:Marshall
C:Marshall
L:1/8
M:2/4
K:A
V:1 treble 
V:1
|: E |"A" [CEA]>c AE | AB [CEA]2 | A/B/c/B/ AE |"B7" FB"E" B2 |"A" c>B AE |"D" Ff"Bm" ed | %7
"A" c/d/e/f/"E7" e/d/c/B/ |"A" cA A :| f/g/ |"A" a>c ec | ac e2 | a/g/f/e/ d/c/B/A/ | %13
"E7" G/A/B/c/ Bg |"A" a>c ec | ac e2 |"Bm" f/e/d/c/"E7" B/c/d/e/ |"A" cA A || f/g/ |"A" a>c ec | %20
 ac e2 | a/g/f/e/ d/c/B/A/ |"E7" G/A/B/c/ Bc |"A" A>c AE |"Bm" FB df |"E7" f/e/d/c/ B/c/d/e/ | %26
"A" cA A |] %27

